COLOR/action 16/16/gtk-select-font.svg

<svg height="16" width="16" xmlns="http://www.w3.org/2000/svg"><path d="m1.7076613-.000035-.2076613 4.1471774h.9435484l.0181451-.2379032c.0509679-.6698634.2103342-1.1793586.4576613-1.5403226.2571464-.3752945.5518295-.611281.891129-.7358871.2447442-.0853436.7440908-.1451612 1.453629-.1451613h1.6048388v11.5705648c0 .850119-.1212634 1.393529-.2076613 1.520161-.0001125.000165.0001123.0019 0 .0021-.2194315.315458-.578013.481806-1.1794354.481806h-.8064516v.9375h7.0826617v-.9375h-.794355c-.555657 0-.915578-.141411-1.1451619-.395162-.04649-.05473-.1223233-.222214-.1693546-.493951-.047434-.274062-.07258-.648427-.07258-1.114919v-11.5705998h1.9233875c.610778 0 1.081494.1039208 1.417339.2883065h.0021l.0021.00201c.347394.1803777.625166.4595988.840726.8629033h-.0021c.11556.2189564.232646.6570671.314517 1.2822579l.03025.2237904h.931452l-.195659-4.1471713h-.245968z" fill="#808080"/><path d="m1.7070312 0-.2070312 4.1464844h.0253906l.1816406-3.6464844h12.8886718.244141l.173828 3.6464844h.023437l-.197265-4.1464844h-.244141zm5.1621094 13.058594c0 .850119-.1206333 1.392899-.2070312 1.519531v.001953c-.2194315.315458-.5782651.482422-1.1796875.482422h-.8066407v.5h.8066407c.6014224 0 .960256-.166964 1.1796875-.482422v-.001953c.0863979-.126632.2070312-.669412.2070312-1.519531zm2.7070313 0v.5c0 .466492.0248316.841172.0722656 1.115234.0470313.271737.1234319.439411.1699219.494141.2295836.253751.5888746.394531 1.1445316.394531h.794921v-.5h-.794921c-.555657 0-.914948-.14078-1.1445316-.394531-.04649-.05473-.1228906-.222404-.1699219-.494141-.047434-.274062-.0722656-.648742-.0722656-1.115234z" fill="#fff" opacity=".3"/><path d="m5.2636719.98828125c-.7095382.0000001-1.2083808.05918765-1.453125.14453125-.3392995.1246061-.6334786.3610336-.890625.7363281-.2473271.360964-.4080165.8711522-.4589844 1.5410156l-.0175781.2363282h-.9179688l-.0253906.5h.9433594l.0175781-.2363282c.0509679-.6698634.2116573-1.1800516.4589844-1.5410156.2571464-.3752945.5513255-.611722.890625-.7363281.2447442-.0853436.7435868-.1445312 1.453125-.1445313h1.6054687v-.49999995zm4.3125 0v.49999995h1.9238281c.610778 0 1.082124.1027237 1.417969.2871094h.001953l.001953.0019532c.347394.1803776.624284.4599767.839844.8632812h-.001953c.11556.2189564.232582.6580123.314453 1.2832031l.03125.2226563h.93164l-.023437-.5h-.908203l-.03125-.2226563c-.081871-.6251908-.198893-1.0642467-.314453-1.2832031h.001953c-.21556-.4033045-.49245-.6829036-.839844-.8632812l-.001953-.0019532h-.001953c-.335845-.1843857-.807191-.28710935-1.417969-.28710935zm-4.9003907 14.51171875v.5h7.0820308v-.5z" opacity=".2"/></svg>

<?xml version="1.0" encoding="UTF-8" standalone="no"?>
<svg
   xmlns:dc="http://purl.org/dc/elements/1.1/"
   xmlns:cc="http://creativecommons.org/ns#"
   xmlns:rdf="http://www.w3.org/1999/02/22-rdf-syntax-ns#"
   xmlns:svg="http://www.w3.org/2000/svg"
   xmlns="http://www.w3.org/2000/svg"
   xmlns:sodipodi="http://sodipodi.sourceforge.net/DTD/sodipodi-0.dtd"
   xmlns:inkscape="http://www.inkscape.org/namespaces/inkscape"
   height="16"
   width="16"
   version="1.1"
   id="svg4"
   sodipodi:docname="gtk-select-font.svg"
   inkscape:version="0.92.4 (5da689c313, 2019-01-14)">
  <metadata
     id="metadata10">
    <rdf:RDF>
      <cc:Work
         rdf:about="">
        <dc:format>image/svg+xml</dc:format>
        <dc:type
           rdf:resource="http://purl.org/dc/dcmitype/StillImage" />
      </cc:Work>
    </rdf:RDF>
  </metadata>
  <defs
     id="defs8" />
  <sodipodi:namedview
     pagecolor="#ffffff"
     bordercolor="#808080"
     borderopacity="1"
     objecttolerance="10"
     gridtolerance="10"
     guidetolerance="10"
     inkscape:pageopacity="0"
     inkscape:pageshadow="2"
     inkscape:window-width="1920"
     inkscape:window-height="1016"
     id="namedview6"
     showgrid="false"
     inkscape:zoom="54.129032"
     inkscape:cx="8.2943892"
     inkscape:cy="10.956627"
     inkscape:window-x="0"
     inkscape:window-y="27"
     inkscape:window-maximized="1"
     inkscape:current-layer="svg4" />
  <path
     style="color:#000000;font-style:normal;font-variant:normal;font-weight:normal;font-stretch:normal;font-size:medium;line-height:normal;font-family:sans-serif;font-variant-ligatures:normal;font-variant-position:normal;font-variant-caps:normal;font-variant-numeric:normal;font-variant-alternates:normal;font-feature-settings:normal;text-indent:0;text-align:start;text-decoration:none;text-decoration-line:none;text-decoration-style:solid;text-decoration-color:#000000;letter-spacing:normal;word-spacing:normal;text-transform:none;writing-mode:lr-tb;direction:ltr;text-orientation:mixed;dominant-baseline:auto;baseline-shift:baseline;text-anchor:start;white-space:normal;shape-padding:0;clip-rule:nonzero;display:inline;overflow:visible;visibility:visible;opacity:1;isolation:auto;mix-blend-mode:normal;color-interpolation:sRGB;color-interpolation-filters:linearRGB;solid-color:#000000;solid-opacity:1;vector-effect:none;fill:#808080;fill-opacity:1;fill-rule:nonzero;stroke:none;stroke-width:0.51612902;stroke-linecap:butt;stroke-linejoin:miter;stroke-miterlimit:4;stroke-dasharray:none;stroke-dashoffset:0;stroke-opacity:1;color-rendering:auto;image-rendering:auto;shape-rendering:auto;text-rendering:auto;enable-background:accumulate"
     d="M 1.7076613,-3.5e-5 1.5,4.1471424 H 2.4435484 L 2.4616935,3.9092392 C 2.5126614,3.2393758 2.6720277,2.7298806 2.9193548,2.3689166 3.1765012,1.9936221 3.4711843,1.7576356 3.8104838,1.6330295 4.055228,1.5476859 4.5545746,1.4878683 5.2641128,1.4878682 H 6.8689516 V 13.058433 c 0,0.850119 -0.1212634,1.393529 -0.2076613,1.520161 -1.125e-4,1.65e-4 1.123e-4,0.0019 0,0.0021 C 6.4418588,14.896152 6.0832773,15.0625 5.4818549,15.0625 H 4.6754033 V 16 H 11.758065 V 15.0625 H 10.96371 c -0.555657,0 -0.915578,-0.141411 -1.1451619,-0.395162 -0.04649,-0.05473 -0.1223233,-0.222214 -0.1693546,-0.493951 -0.047434,-0.274062 -0.07258,-0.648427 -0.07258,-1.114919 V 1.4878682 h 1.9233875 c 0.610778,0 1.081494,0.1039208 1.417339,0.2883065 h 0.0021 l 0.0021,0.00201 c 0.347394,0.1803777 0.625166,0.4595988 0.840726,0.8629033 h -0.0021 c 0.11556,0.2189564 0.232646,0.6570671 0.314517,1.2822579 l 0.03025,0.2237904 h 0.931452 L 14.840726,-3.5e-5 h -0.245968 z"
     id="path2"
     inkscape:connector-curvature="0"
     sodipodi:nodetypes="ccccscscsccsccccsccscsccccccccccc" />
  <path
     style="color:#000000;font-style:normal;font-variant:normal;font-weight:normal;font-stretch:normal;font-size:medium;line-height:normal;font-family:sans-serif;font-variant-ligatures:normal;font-variant-position:normal;font-variant-caps:normal;font-variant-numeric:normal;font-variant-alternates:normal;font-feature-settings:normal;text-indent:0;text-align:start;text-decoration:none;text-decoration-line:none;text-decoration-style:solid;text-decoration-color:#000000;letter-spacing:normal;word-spacing:normal;text-transform:none;writing-mode:lr-tb;direction:ltr;text-orientation:mixed;dominant-baseline:auto;baseline-shift:baseline;text-anchor:start;white-space:normal;shape-padding:0;clip-rule:nonzero;display:inline;overflow:visible;visibility:visible;opacity:0.3;isolation:auto;mix-blend-mode:normal;color-interpolation:sRGB;color-interpolation-filters:linearRGB;solid-color:#000000;solid-opacity:1;vector-effect:none;fill:#ffffff;fill-opacity:1;fill-rule:nonzero;stroke:none;stroke-width:0.51612902;stroke-linecap:butt;stroke-linejoin:miter;stroke-miterlimit:4;stroke-dasharray:none;stroke-dashoffset:0;stroke-opacity:1;color-rendering:auto;image-rendering:auto;shape-rendering:auto;text-rendering:auto;enable-background:accumulate"
     d="M 1.7070312 0 L 1.5 4.1464844 L 1.5253906 4.1464844 L 1.7070312 0.5 L 14.595703 0.5 L 14.839844 0.5 L 15.013672 4.1464844 L 15.037109 4.1464844 L 14.839844 0 L 14.595703 0 L 1.7070312 0 z M 6.8691406 13.058594 C 6.8691406 13.908713 6.7485073 14.451493 6.6621094 14.578125 C 6.6621094 14.578125 6.6621094 14.580078 6.6621094 14.580078 C 6.4426779 14.895536 6.0838443 15.0625 5.4824219 15.0625 L 4.6757812 15.0625 L 4.6757812 15.5625 L 5.4824219 15.5625 C 6.0838443 15.5625 6.4426779 15.395536 6.6621094 15.080078 C 6.6621094 15.080078 6.6621094 15.078125 6.6621094 15.078125 C 6.7485073 14.951493 6.8691406 14.408713 6.8691406 13.558594 L 6.8691406 13.058594 z M 9.5761719 13.058594 L 9.5761719 13.558594 C 9.5761719 14.025086 9.6010035 14.399766 9.6484375 14.673828 C 9.6954688 14.945565 9.7718694 15.113239 9.8183594 15.167969 C 10.047943 15.42172 10.407234 15.5625 10.962891 15.5625 L 11.757812 15.5625 L 11.757812 15.0625 L 10.962891 15.0625 C 10.407234 15.0625 10.047943 14.92172 9.8183594 14.667969 C 9.7718694 14.613239 9.6954688 14.445565 9.6484375 14.173828 C 9.6010035 13.899766 9.5761719 13.525086 9.5761719 13.058594 z "
     id="path819" />
  <path
     style="color:#000000;font-style:normal;font-variant:normal;font-weight:normal;font-stretch:normal;font-size:medium;line-height:normal;font-family:sans-serif;font-variant-ligatures:normal;font-variant-position:normal;font-variant-caps:normal;font-variant-numeric:normal;font-variant-alternates:normal;font-feature-settings:normal;text-indent:0;text-align:start;text-decoration:none;text-decoration-line:none;text-decoration-style:solid;text-decoration-color:#000000;letter-spacing:normal;word-spacing:normal;text-transform:none;writing-mode:lr-tb;direction:ltr;text-orientation:mixed;dominant-baseline:auto;baseline-shift:baseline;text-anchor:start;white-space:normal;shape-padding:0;clip-rule:nonzero;display:inline;overflow:visible;visibility:visible;opacity:0.2;isolation:auto;mix-blend-mode:normal;color-interpolation:sRGB;color-interpolation-filters:linearRGB;solid-color:#000000;solid-opacity:1;vector-effect:none;fill:#000000;fill-opacity:1;fill-rule:nonzero;stroke:none;stroke-width:0.51612902;stroke-linecap:butt;stroke-linejoin:miter;stroke-miterlimit:4;stroke-dasharray:none;stroke-dashoffset:0;stroke-opacity:1;color-rendering:auto;image-rendering:auto;shape-rendering:auto;text-rendering:auto;enable-background:accumulate"
     d="M 5.2636719 0.98828125 C 4.5541337 0.98828135 4.0552911 1.0474689 3.8105469 1.1328125 C 3.4712474 1.2574186 3.1770683 1.4938461 2.9199219 1.8691406 C 2.6725948 2.2301046 2.5119054 2.7402928 2.4609375 3.4101562 L 2.4433594 3.6464844 L 1.5253906 3.6464844 L 1.5 4.1464844 L 2.4433594 4.1464844 L 2.4609375 3.9101562 C 2.5119054 3.2402928 2.6725948 2.7301046 2.9199219 2.3691406 C 3.1770683 1.9938461 3.4712474 1.7574186 3.8105469 1.6328125 C 4.0552911 1.5474689 4.5541337 1.4882813 5.2636719 1.4882812 L 6.8691406 1.4882812 L 6.8691406 0.98828125 L 5.2636719 0.98828125 z M 9.5761719 0.98828125 L 9.5761719 1.4882812 L 11.5 1.4882812 C 12.110778 1.4882812 12.582124 1.5910049 12.917969 1.7753906 L 12.919922 1.7753906 L 12.921875 1.7773438 C 13.269269 1.9577214 13.546159 2.2373205 13.761719 2.640625 L 13.759766 2.640625 C 13.875326 2.8595814 13.992348 3.2986373 14.074219 3.9238281 L 14.105469 4.1464844 L 15.037109 4.1464844 L 15.013672 3.6464844 L 14.105469 3.6464844 L 14.074219 3.4238281 C 13.992348 2.7986373 13.875326 2.3595814 13.759766 2.140625 L 13.761719 2.140625 C 13.546159 1.7373205 13.269269 1.4577214 12.921875 1.2773438 L 12.919922 1.2753906 L 12.917969 1.2753906 C 12.582124 1.0910049 12.110778 0.98828125 11.5 0.98828125 L 9.5761719 0.98828125 z M 4.6757812 15.5 L 4.6757812 16 L 11.757812 16 L 11.757812 15.5 L 4.6757812 15.5 z "
     id="path824" />
</svg>
